public/images/insta_footer.svg

<svg fill="none" height="46" viewBox="0 0 46 46" width="46" xmlns="http://www.w3.org/2000/svg" xmlns:xlink="http://www.w3.org/1999/xlink"><mask id="a" height="20" maskUnits="userSpaceOnUse" width="20" x="13" y="13"><path d="m13 13h20v20h-20z" fill="#fff"/></mask><path d="m46 23c0 12.7025-10.2975 23-23 23s-23-10.2975-23-23 10.2975-23 23-23 23 10.2975 23 23z" fill="#f5ecd5"/><path d="m20.498 22.9934c0-1.3812 1.1196-2.5007 2.5002-2.5007 1.3812 0 2.5002 1.1195 2.5002 2.5007 0 1.3806-1.119 2.5002-2.5002 2.5002-1.3806 0-2.5002-1.1196-2.5002-2.5002z" fill="#587a33"/><g mask="url(#a)"><path clip-rule="evenodd" d="m22.9983 32.9952c-8.2361 0-10.0012-1.7651-10.0012-10.0012 0-8.2362 1.7651-10.0018 10.0012-10.0018 8.2362 0 10.0013 1.7656 10.0013 10.0018 0 8.2361-1.7651 10.0012-10.0013 10.0012zm3.334-15.0021c0 .4603.3733.8332.8332.8332.4604 0 .8337-.3729.8337-.8332 0-.4604-.3733-.8338-.8337-.8338-.4599 0-.8332.3734-.8332.8338zm-7.5011 5.0009c0-2.3019 1.8658-4.1677 4.1671-4.1677 2.3014 0 4.1672 1.8658 4.1672 4.1677 0 2.3013-1.8658 4.1671-4.1672 4.1671-2.3013 0-4.1671-1.8658-4.1671-4.1671z" fill="#587a33" fill-rule="evenodd"/></g></svg>

<svg width="46" height="46" viewBox="0 0 46 46" fill="none" xmlns="http://www.w3.org/2000/svg">
<path d="M46 23C46 35.7025 35.7025 46 23 46C10.2975 46 0 35.7025 0 23C0 10.2975 10.2975 0 23 0C35.7025 0 46 10.2975 46 23Z" fill="#F5ECD5"/>
<path d="M20.498 22.9934C20.498 21.6122 21.6176 20.4927 22.9982 20.4927C24.3794 20.4927 25.4984 21.6122 25.4984 22.9934C25.4984 24.374 24.3794 25.4936 22.9982 25.4936C21.6176 25.4936 20.498 24.374 20.498 22.9934Z" fill="#587A33"/>
<mask id="mask0_168_89" style="mask-type:luminance" maskUnits="userSpaceOnUse" x="13" y="13" width="20" height="20">
<path d="M13 13H33V33H13V13Z" fill="white"/>
</mask>
<g mask="url(#mask0_168_89)">
<path fill-rule="evenodd" clip-rule="evenodd" d="M22.9983 32.9952C14.7622 32.9952 12.9971 31.2301 12.9971 22.994C12.9971 14.7578 14.7622 12.9922 22.9983 12.9922C31.2345 12.9922 32.9996 14.7578 32.9996 22.994C32.9996 31.2301 31.2345 32.9952 22.9983 32.9952ZM26.3323 17.9931C26.3323 18.4534 26.7056 18.8263 27.1655 18.8263C27.6259 18.8263 27.9992 18.4534 27.9992 17.9931C27.9992 17.5327 27.6259 17.1593 27.1655 17.1593C26.7056 17.1593 26.3323 17.5327 26.3323 17.9931ZM18.8312 22.994C18.8312 20.6921 20.697 18.8263 22.9983 18.8263C25.2997 18.8263 27.1655 20.6921 27.1655 22.994C27.1655 25.2953 25.2997 27.1611 22.9983 27.1611C20.697 27.1611 18.8312 25.2953 18.8312 22.994Z" fill="#587A33"/>
</g>
</svg>
